X: 279
T:Hard Road to Travel, the
R:reel
D:Mike and Mary Rafferty, the Old Fireside Music.
Z:Lesl
M:C|
L:1/8
K:Edor
E2BE edBz|dBAF DEFD|E~EBE edBz|dBAF BFAF|
EzBE edBz|dBAF DEFD|E~EBE edBz|dBAF BFaf||
ezef gfef|dBAF Defd|e~e2f gfez|dBAF BFaf|
ezef gfef|dBAB defg|abaz fafe|dBAF BFAF||E8||
<end>
<start>
